X:50
T:3-part Reinl\"ander
S:Spaelimenninnir i Hoydalum
R:Reinl\"ander
O:Norway
M:4/4
K:Dm
DEFG A2A2 | AGBG A2F2 | FEGE F2DF | ED^CE D2D2|\
DEFG A2A2 | AGBG A2F2 | FEGE F2DF \
|1 ED^CE D4 :|2 \
M:6/4
ED^CE D6^FA || \
M:4/4
K:D
d4 d2ec | c2A2 A4 | GFEF GABd | c2A2 A2Bc |\
d4 d2ed | c2A2 A4 | GFEF GECE | D2D2 D2FA |\
d4 d2ed | c2A2 A4 | GFEF GABd | c2A2 Aaag |\
f2d2 dfed | c2A2 A4| GFEF GECE | D2D2 D2=FA|\
K:Dm
|:d2d2 c3B | AGAB AFDE | F2FF GABG | A2AA =B2^c2|\
d2d2 c3B | AGAB AFDE | F2FF ED^CE | D2D2D2:|**
